X:5
T: Úgy elmegyek, meglássátok
M:4/4
L:1/4
K:C
d/d/ c/c/ | c d | e d |
e/d/ c/c/ | d A | G F | 
c>d | A<G | D C | F G | 
A/A/ A/G/ | F<C | D2 | D z |
W: Úgy elmehgyek meglássátok,
W: Soha hírem se halljátok.
W: Amikor hírem halljátok,
W: Gyász levelem olvassátok.
W: 
W: Bánat, bánat, csokros bánat.
W: Mért raktál szívemre várat.
W: Mért nem raktad olyan helyre,
W: Honnét madár sem jön erre.
W: 
W: Engem anyám megátkozott,
W: Még a világra se hozott,
W: Ne legyen szerencsém soha,
W: Az én ifijuságomba.
W: 
W: Sírok, Sírok kit más nem lát,
W: Könnyem orcámra árkot ás,
W: Árkot mosott az orcámra,
W: Mint kis patak az utcára.

